!!!!SEGMENT: pl-cz--iii-176--001_elsner-jozef--hymni-statio-o-salutaris-hostia.krn
!!!cenid: 18xx:18
!!!COM: Elsner, Józef
!!!COM-rismID: pe30000957
!!!CDT: 1769/06/01-1854/04/18
!!!CNT: Polish
!!!GTL: 71
!!!OTL: O salutaris hostia
!!!PDT:
!!!AGN: Sacred
!!!SMS-siglum: PL-CZ
!!!SMS-shelfmark: III-176
!!!SMS-shelfwork: 001 G
!!!NIFC-rismSourceID:
!!!NIFC-islandoraID: pl-cz:35104
!!!URL-pdf-islandora: https://repozytorium.nifc.pl/islandora/object/pl-cz%3A35104/datastream/PDF/view
!!!URL-scan:
!!!ONB-nifc:
!!!AIN: 1 alto 1 bass 1 cello 1 tenor 1 vox
!!!key:
**kern	**dynam	**kern	**text	**dynam	**kern	**text	**dynam	**kern	**text	**dynam	**kern	**text	**dynam
*part5	*part5	*part4	*part4	*part4	*part3	*part3	*part3	*part2	*part2	*part2	*part1	*part1	*part1
*staff5	*	*staff4	*staff4	*	*staff3	*staff3	*	*staff2	*staff2	*	*staff1	*staff1	*
*Icello	*	*Ibass	*	*	*Itenor	*	*	*Ialto	*	*	*Ivox	*	*
*I"Violone	*	*I"Basso	*	*	*I"Tenore	*	*	*I"Alto	*	*	*I"Canto	*	*
*I'Vlne	*	*I'B	*	*	*I'T	*	*	*I'A	*	*	*I'C	*	*
*clefF4	*	*clefF4	*	*	*clefC4	*	*	*clefC3	*	*	*clefC1	*	*
*k[f#]	*	*k[f#]	*	*	*k[f#]	*	*	*k[f#]	*	*	*k[f#]	*	*
*G:	*	*G:	*	*	*G:	*	*	*G:	*	*	*G:	*	*
*M3/4	*	*M3/4	*	*	*M3/4	*	*	*M3/4	*	*	*M3/4	*	*
=1	=1	=1	=1	=1	=1	=1	=1	=1	=1	=1	=1	=1	=1
!LO:TX:a:t=Andante	!	!LO:TX:a:t=Andante	!	!	!LO:TX:a:t=Andante	!	!	!LO:TX:a:t=Andante	!	!	!LO:TX:a:t=Andante	!	!
2G\	.	2G\	O!	.	2B\	O!	.	2d\	O!	.	2g\	O!	<
.	.	.	.	.	.	.	.	.	.	.	.	.	.[
.	.	.	.	.	.	.	.	.	.	.	.	.	>
4r	.	4r	.	.	4r	.	.	4r	.	.	4r	.	]
=2	=2	=2	=2	=2	=2	=2	=2	=2	=2	=2	=2	=2	=2
2.G\	.	2.G\	O!	.	2.d\	O!	.	2.g\	O!	.	2.b\	O!	<
.	.	.	.	.	.	.	.	.	.	.	.	.	[
=3	=3	=3	=3	=3	=3	=3	=3	=3	=3	=3	=3	=3	=3
2G\	.	2G\	Sa-	.	2B\	Sa-	.	2g\	Sa-	.	2dd\	Sa-	>
4G\	.	4G\	-lu-	.	4d\	-lu-	.	4g\	-lu-	.	4b\	-lu-	]
=4	=4	=4	=4	=4	=4	=4	=4	=4	=4	=4	=4	=4	=4
2c\	.	2c\	-ta-	.	2d\	-ta-	.	2f#\	-ta-	.	2a\	-ta-	.
4B\	.	4B\	-ris	.	4d\	-ris	.	4g\	-ris	.	4g\	-ris	.
=5	=5	=5	=5	=5	=5	=5	=5	=5	=5	=5	=5	=5	=5
2A\	.	2A\	ho-	.	2c\	ho-	.	2e\	ho-	.	2cc\	ho-	.
4A\	.	4A\	-sti-	.	4c\	-sti-	.	4f#\	-sti-	.	4cc\	-sti-	.
=6	=6	=6	=6	=6	=6	=6	=6	=6	=6	=6	=6	=6	=6
!	!	!	!	!	!	!	!	!	!	!	!LO:PB:g=original	!	!
2G\	.	2G\	-a	.	2d\	-a	.	2g\	-a	.	2b\	-a	.
4r	.	4r	.	.	4r	.	.	4r	.	.	4r	.	.
=7	=7	=7	=7	=7	=7	=7	=7	=7	=7	=7	=7	=7	=7
!LO:PB:g=original	!	!	!	!	!LO:PB:g=original	!	!	!	!	!	!	!	!LO:DY:a
2E\	.	2E\	O!	.	2c\	O!	.	2g\	O!	.	2cc\	O!	<
.	.	.	.	.	.	.	.	.	.	.	.	.	[
.	.	.	.	.	.	.	.	.	.	.	.	.	>
4r	.	4r	.	.	4r	.	.	4r	.	.	4r	.	]
=8	=8	=8	=8	=8	=8	=8	=8	=8	=8	=8	=8	=8	=8
!	!	!LO:PB:g=original	!	!	!	!	!	!LO:PB:g=original	!	!	!	!	!
2.C/	.	2.C/	O!	.	2.c\	O!	.	2.g\	O!	.	2.ee\	O!	<
.	.	.	.	.	.	.	.	.	.	.	.	.	[
=9	=9	=9	=9	=9	=9	=9	=9	=9	=9	=9	=9	=9	=9
2C/	.	2C/	Sa-	.	2e\	Sa-	.	2g\	Sa-	.	2gg\	Sa-	>
.	.	.	.	.	.	.	.	.	.	.	.	.	]
4C/	.	4C/	-lu-	.	4c\	-lu-	.	4g\	-lu-	.	4ee\	-lu-	.
=10	=10	=|:10	=10	=10	=10	=10	=10	=10	=10	=10	=10	=10	=10
!	!	!LO:TX:a:t=bis	!	!	!	!	!	!	!	!	!	!	!
!	!	!LO:TX:t=P:problem="hosti" pod "ta ris"	!	!	!	!	!	!	!	!	!	!	!
2D/	.	2D\	-ta-	.	(>4B\	-ta-	.	(>4g\	-ta-	.	(>4dd\	-ta-	[
.	.	.	.	.	4A)\	.	.	4f#)\	.	.	4cc)\	.	.
4D/	.	4D\	-ris	.	4B\	-ris	.	4g\	-ris	.	4b\	-ris	.
=11	=11	=:|11	=11	=11	=11	=11	=11	=11	=11	=11	=11	=11	=11
2D/	.	2D\	ho-	.	2c\	ho-	.	2f#\	ho-	.	2a\	ho-	.
4D/	.	4D\	-sti-	.	(>8.cL\	-sti-	.	8.f#L\	-sti-	.	8.aL\	-sti-	.
.	.	.	.	.	16dJ\)	.	.	16gJ\	.	.	16bJ\	.	.
=12	=12	=12	=12	=12	=12	=12	=12	=12	=12	=12	=12	=12	=12
2G\	.	2G\	-a	.	2B\	-a	.	2g\	-a	.	2g\	-a	.
!	!	!	!	!	!	!	!	!	!	!	!LO:SIC:v= we wszystkich głosach que zamiast quae	!	!
4G\	.	4G\	Que	.	4d\	Que	.	4g\	Que	.	4b\	Que	.
=13	=13	=13	=13	=13	=13	=13	=13	=13	=13	=13	=13	=13	=13
!	!	!	!	!	!	!	!	!	!	!	!LO:SIC:v= we wszystkich głosach celis zamiast caelisi	!	!
4.G\	.	4.G\	ce-	.	4.e\	ce-	.	4.g\	ce-	.	4.cc\	ce-	.
8G\	.	8G\	-li	.	8d\	-li	.	8g\	-li	.	8b\	-li	.
8G\	.	8G\	pan-	.	8c\	pan-	.	8g\	pan-	.	8ee\	pan-	.
8G\	.	8G\	-dis	.	8B\	-dis	.	8g\	-dis	.	8dd\	-dis	.
=14	=14	=14	=14	=14	=14	=14	=14	=14	=14	=14	=14	=14	=14
8.G\	.	8.G\	o-	.	8.B\	o-	.	8.g\	o-	.	8.dd\	o-	.
16G\	.	16G\	-sti-	.	16c\	-sti-	.	16g\	-sti-	.	16ee\	-sti-	.
!	!	!	!	!	!	!	!	!	!	!	!LO:PB:g=original	!	!
4G\	.	4G\	-um	.	4B\	-um	.	4g\	-um	.	4dd\	-um	.
4G\	.	4G\	que	.	4B\	que	.	4g\	que	.	4dd\	quae	.
=15	=15	=15	=15	=15	=15	=15	=15	=15	=15	=15	=15	=15	=15
!LO:PB:g=original	!	!	!	!	!LO:PB:g=original	!	!	!	!	!	!	!	!
4.C/	.	4.C/	ce-	.	4.c\	ce-	.	4.g\	ce-	.	4.ee\	ce-	.
8BB/	.	8BB/	-li	.	8d\	-li	.	8g\	-li	.	8dd\	-li	.
!	!	!	!	!	!	!	!	!LO:PB:g=original	!	!	!	!	!
8AA/	.	8AA/	pan-	.	8d\	pan-	.	8f#\	pan-	.	8cc\	pan-	.
8GG/	.	8GG/	-dis	.	8d\	-dis	.	8g\	-dis	.	8b\	-dis	.
=16	=16	=16	=16	=16	=16	=16	=16	=16	=16	=16	=16	=16	=16
8.D\	.	8.D\	o-	.	8.d\	o-	.	8.f#\	o-	.	8.a\	o-	.
16D\	.	16D\	-sti-	.	16d\	-sti-	.	16g\	-sti-	.	16b\	-sti-	.
!	!	!LO:PB:g=original	!	!	!	!	!	!	!	!	!	!	!
4D\	.	4D\	-um.	.	4d\	-um	.	4f#\	-um.	.	4a\	-um.	.
!	!LO:DY:b	!	!	!	!	!	!	!	!	!	!	!	!LO:DY:a
.	f	.	.	f	.	.	.	.	.	.	.	.	.
8.dL\	.	8.d\	Bel-	.	8.d\	Bel-	.	8.ddL\	Bel-	f	8.ddL\	Bel-	f
.	.	.	.	.	.	.	f	.	.	.	.	.	.
16c#XJ\	.	16c#X\	-la	.	16c#X\	-la	.	16cc#XJ\	-la	.	16cc#XJ\	-la	.
=17	=17	=17	=17	=17	=17	=17	=17	=17	=17	=17	=17	=17	=17
4d\	.	4d\	pre-	.	4d\	pre-	.	4dd\	pre-	.	4dd\	pre-	.
4F#\	.	4F#\	-munt	.	4F#/	-munt	.	4f#\	-munt	.	4f#/	-munt	.
!	!	!LO:TX:t=P:problem= sylaba "ho" pod 'munt"	!	!	!LO:TX:t=P:problem=sylaba "ho" pod tekstem	!	!	!	!	!	!	!	!
4A\	.	4A\	ho-	.	4A\	ho-	.	4a\	ho-	.	4a\	ho-	.
=18	=18	=18	=18	=18	=18	=18	=18	=18	=18	=18	=18	=18	=18
4.F#\	.	4.F#\	-sti-	.	4.F#/	-sti-	.	4.f#\	-sti-	.	4.f#/	-sti-	.
8E\	.	8E\	-li-	.	8E/	-li-	.	8e\	-li-	.	8e/	-li-	.
4D\	.	4D\	-a	.	4D/	-a	.	4d\	-a	.	4d/	-a	.
=19	=19	=19	=19	=19	=19	=19	=19	=19	=19	=19	=19	=19	=19
!	!	!	!	!	!	!	!	!	!	!	!	!	!LO:DY:a
*clefC4	*	*	*	*	*	*	*	*	*	*	*	*	*
2d\	.	2.r	.	.	2d\	Bel-	.	2.r	.	.	2dd\	Bel-	p
4d\	.	.	.	.	4d\	-la	.	.	.	.	4dd\	-la	[[
=20	=20	=20	=20	=20	=20	=20	=20	=20	=20	=20	=20	=20	=20
*clefF4	*	*	*	*	*	*	*	*	*	*	*	*	*
2BB-X/	.	2BB-X/	Bel-	.	2.d\	pre-	.	2fn\	Bel-	.	2.dd\	pre-	[
4BB-/	.	4BB-/	-la	.	.	.	.	4f\	-la	.	.	.	.
=21	=21	=21	=21	=21	=21	=21	=21	=21	=21	=21	=21	=21	=21
!	!	!	!	!	!	!	!	!	!	!	!LO:PB:g=original	!	!
4BB-X/	.	4BB/	pre-	.	2d\	-munt	.	4fn\	pre-	.	2dd\	-munt	.
4BB-/	.	4BB/	-munt	.	.	.	.	4f\	-munt	.	.	.	.
4BB-/	.	4BB/	ho-	.	4d\	ho-	.	4f\	ho-	.	4dd\	ho-	.
=22	=22	=22	=22	=22	=22	=22	=22	=22	=22	=22	=22	=22	=22
!LO:PB:g=original	!	!	!	!	!LO:PB:g=original	!	!	!LO:PB:g=original	!	!	!	!	!
8.AAL/	.	8.AA/	-sti-	.	8.c\	-sti-	.	8.fn\	-sti-	.	8.ee-X\	-sti-	.
16AAJ/	.	16AA/	-li-	.	16c\	-li-	.	16f\	-li-	.	16ee-\	-li-	.
4AA/	.	4AA/	-a	.	4c\	-a	.	4f\	-a	.	4ee-\	-a	.
!	!	!	!	!	!	!	!LO:DY:a	!	!	!	!	!	!LO:DY:a
4Fn\	.	4Fn\	da	.	4A\	da	p	4f\	da	.	4cc\	da	p
!	!	!LO:PB:g=original	!	!	!	!	!	!	!	!	!	!	!
=23	=23	=23	=23	=23	=23	=23	=23	=23	=23	=23	=23	=23	=23
2BB-X/	.	2BB-X/	ro-	.	2B-X\	ro-	.	(4fn\	ro-	.	2dd\	ro-	.
.	.	.	.	.	.	.	.	4b-X)\	.	.	.	.	.
4C/	.	4C/	-bur	.	4B-\	-bur,	.	4b-\	-bur	.	4ee-X\	-bur	.
=24	=24	=24	=24	=24	=24	=24	=24	=24	=24	=24	=24	=24	=24
4.\D	.	4.D\	fer	.	4.B-X\	fer	.	4.b-X\	fer	.	4.ffn\	fer	.
8G\	.	8G\	au-	.	8B-\	au-	.	8d\	au-	.	8b-X\	au-	.
8.FnL\	.	8.G\	-xi-	.	8.B-\	-xi-	.	8.fn\	-xi-	.	8.dd\	-xi-	.
16FJ\	.	16F#\	-li-	.	16B-\	-li-	.	16e-X\	-li-	.	16cc\	-li-	.
=25	=25	=25	=25	=25	=25	=25	=25	=25	=25	=25	=25	=25	=25
2G\	.	2G\	-um	.	2B-X\	-um	.	2d\	-um	.	2b-X\	-um	.
!	!	!	!	!	!	!	!	!	!	!	!	!	!LO:DY:a
4Fn\	.	4Fn	da	.	4G/	da	.	4d\	da	.	4bn\	da	<
=26	=26	=26\	=26	=26	=26	=26	=26	=26	=26	=26	=26	=26	=26
2En\	.	2E\	ro-	.	2G/	ro-	.	2g\	ro-	.	2cc\	ro-	[
4E-X\	.	4E-X\	-bur	.	4G/	-bur	.	4g\	-bur	.	4cc#X\	-bur	.
=27	=27	=27	=27	=27	=27	=27	=27	=27	=27	=27	=27	=27	=27
4.D\	.	4.D\	fer	.	4.A\	fer	.	4.f#X\	fer	.	4.dd\	fer	.
8D\	.	8D\	au-	.	8A\	au-	.	8f#\	au-	.	8dd\	au-	.
8.DL\	.	8.D\	-xi-	.	8.B-X\	-xi-	.	8.g\	-xi-	.	8.dd\	-xi-	.
16DJ\	.	16D\	-li-	.	16B-\	-li-	.	16g\	-li-	.	16dd\	-li-	.
=28	=28	=28	=28	=28	=28	=28	=28	=28	=28	=28	=28	=28	=28
!	!	!	!	!	!	!	!	!	!	!	!LO:PB:g=original	!	!
2D\	.	2D\	-um.	.	2A\	-um.	.	2f#X\	-um.	.	2dd\	-um	.
4r	.	4r	.	.	4r	.	.	4r	.	.	4r	.	.
=29	=29	=29	=29	=29	=29	=29	=29	=29	=29	=29	=29	=29	=29
!LO:PB:g=original	!	!	!	!	!	!	!	!LO:PB:g=original	!	!	!	!	!LO:DY:a
*clefC4	*	*	*	*	*	*	*	*	*	*	*	*	*
2.Bn\	.	2.r	.	.	2.Bn\	U-	.	2.r	.	.	2.g\	U-	p
=30	=30	=30	=30	=30	=30	=30	=30	=30	=30	=30	=30	=30	=30
!	!	!	!	!	!LO:PB:g=original	!	!	!	!	!	!	!	!LO:DY:a
*clefF4	*	*	*	*	*	*	*	*	*	*	*	*	*
2.G\	.	2.G\	U-	.	2.d\	-ni	.	2.g\	U-	.	2.b\	-ni	<
.	.	.	.	.	.	.	.	.	.	.	.	.	[
=31	=31	=31	=31	=31	=31	=31	=31	=31	=31	=31	=31	=31	=31
2G\	.	2G\	-ni	.	(>2B\	tri-	.	2g\	-ni	.	(>2dd\	tri-	[
4G\	.	4G\	tri-	.	4d)\	.	.	4g\	tri-	.	4b)\	.	.
=32	=32	=32	=32	=32	=32	=32	=32	=32	=32	=32	=32	=32	=32
!	!	!LO:PB:g=original	!	!	!	!	!	!	!	!	!	!	!
2c\	.	2c\	-no-	.	2d\	-no-	.	2f#\	-no-	.	2a\	-no-	.
4B\	.	4B\	-que	.	4d\	-que	.	4g\	-que	.	4g\	-que	.
=33	=33	=33	=33	=33	=33	=33	=33	=33	=33	=33	=33	=33	=33
2A\	.	2A\	Do-	.	2c\	Do-	.	2e\	Do-	.	2cc\	Do-	.
4A\	.	4A\	-mi-	.	4c\	-mi-	.	4f#\	-mi-	.	4cc\	-mi-	.
=34	=34	=34	=34	=34	=34	=34	=34	=34	=34	=34	=34	=34	=34
2G\	.	2G\	-no	.	2d\	-no	.	2g\	-no	.	2b\	-no	.
4r	.	4r	.	.	4r	.	.	4r	.	.	4r	.	.
=35	=35	=35	=35	=35	=35	=35	=35	=35	=35	=35	=35	=35	=35
2E\	.	2E\	Sit	.	2c\	Sit	.	2g\	Sit	.	2cc\	Sit	>
4r	.	4r	.	.	4r	.	.	4r	.	.	4r	.	]
=36	=36	=36	=36	=36	=36	=36	=36	=36	=36	=36	=36	=36	=36
2C/	.	2C/	Sit	.	2c\	Sit	.	2g\	Sit	.	2ee\	Sit	>
4r	.	4r	.	.	4r	.	.	4r	.	.	4r	.	]
=37	=37	=37	=37	=37	=37	=37	=37	=37	=37	=37	=37	=37	=37
2C/	.	2C/	sem-	.	2e\	Sem-	.	2g\	Sem-	.	2gg\	Sem-	>
4C/	.	4C/	-pi-	.	4c\	-pi-	.	4g\	-pi-	.	4ee\	-pi-	]
=38	=38	=38	=38	=38	=38	=38	=38	=38	=38	=38	=38	=38	=38
!LO:PB:g=original	!	!	!	!	!	!	!	!	!	!	!	!LO:PB:g=original	!
2D/	.	2D\	-ter-	.	(>4B\	-ter-	.	(>4g\	-ter-	.	(>4dd\	-ter-	.
.	.	.	.	.	4A)\	.	.	4f#)\	.	.	4cc)\	.	.
4D/	.	4D\	-na	.	4B\	-na	.	4g\	-na	.	4b\	-na	.
=39	=39	=39	=39	=39	=39	=39	=39	=39	=39	=39	=39	=39	=39
!	!	!	!	!	!	!	!	!LO:PB:g=original	!	!	!	!	!
2D/	.	2D\	glo-	.	2c\	glo-	.	2f#\	glo-	.	2a\	glo-	.
4D/	.	4D\	-ri-	.	(>8.cL\	-ri-	.	8.f#L\	-ri-	.	8.aL\	-ri-	.
.	.	.	.	.	16dJk)\	.	.	16gJ\	.	.	16bJ\	.	.
=40	=40	=40	=40	=40	=40	=40	=40	=40	=40	=40	=40	=40	=40
!	!	!	!	!	!LO:PB:g=original	!	!	!	!	!	!	!	!LO:DY:a
2G\	.	2G\	-a	.	2B\	-a	.	2g\	-a	.	2g\	-a	pp
!	!	!	!	!LO:DY:a	!	!	!	!	!	!	!	!	!
4Fn\	.	4Fn\	qui	f	4B\	Qui	.	4d\	qui	.	4g\	qui	.
=41	=41	=41	=41	=41	=41	=41	=41	=41	=41	=41	=41	=41	=41
2E\	.	2E\	vi-	.	2c\	vi-	.	2c\	vi-	.	2g\	vi-	.
4D\	.	4D\	-tam	.	4B\	-tam	.	4fn\	-tam	.	4g\	-tam	.
=42	=42	=42	=42	=42	=42	=42	=42	=42	=42	=42	=42	=42	=42
!	!	!LO:PB:g=original	!	!	!	!	!	!	!	!	!	!	!
2C/	.	2C/	si-	.	2c\	si-	.	2e\	si-	.	2g\	si-	.
4BB/	.	4BB/	-ne	.	4d\	-ne	.	4d\	-ne	.	4g\	-ne	.
=43	=43	=43	=43	=43	=43	=43	=43	=43	=43	=43	=43	=43	=43
!	!	!	!	!	!	!	!	!	!	!	!	!	!LO:DY:a
4.AA/	.	4.AA/	ter-	.	4.c\	ter-	.	4.e\	ter-	.	4.cc\	ter-	<
8AA/	.	8AA/	-mi-	.	8c\	-mi-	.	8e\	-mi-	.	8cc\	-mi-	.
4D/	.	4D/	-no	.	4A\	-no	.	4f#X\	-no	.	4cc\	-no	[
=44	=44	=44	=44	=44	=44	=44	=44	=44	=44	=44	=44	=44	=44
2E\	.	2E\	no-	.	2G/	no-	.	2g\	no-	.	2b\	no-	.
4E\	.	4E\	-bis	.	4G/	-bis	.	(>4g\	-bis	.	4b\	-bis	.
=45	=45	=45	=45	=45	=45	=45	=45	=45	=45	=45	=45	=45	=45
!	!	!	!	!	!	!	!LO:DY:a	!	!	!	!	!	!LO:DY:a
*	*	*	*	*	*^	*	*	*	*	*	*	*	*
2.C/	.	2.C/	do-	.	2.c/	4G\	do-	>	4g)\	do-	.	[2.ee\	do-	[[
.	.	.	.	.	.	4G#X\	.	]	4g#X\	.	.	.	.	.
!	!	!	!	!	!	!	!	!	!LO:SIC:v=powtórzone "net"	!	!	!	!	!
.	.	.	.	.	.	4A\	-net	.	4a\	net	.	.	.	.
=46	=46	=46	=46	=46	=46	=46	=46	=46	=46	=46	=46	=46	=46	=46
2C/	.	2C/	-net	.	2c/	2A\	in	.	2e\	-net	.	4ee]\	.	[
.	.	.	.	.	.	.	.	.	.	.	.	4cc\	-net	.
4C/	.	4C/	in	.	(>4c/	4c\	pa-	.	4e\	in	.	4a\	in	.
*	*	*	*	*	*v	*v	*	*	*	*	*	*	*	*
=47	=47	=47	=47	=47	=47	=47	=47	=47	=47	=47	=47	=47	=47
2D/	.	2D\	pa-	.	2B)\	.	.	2d\	.	.	2g\	pa-	.
4D/	.	4D\	-tri-	.	(>8.cL\	-tri-	.	8.f#L\	-tri-	.	(>8.aL\	-tri-	.
.	.	.	.	.	16BJk)\	.	.	16gJ\	.	.	16gJ\)	.	.
=48	=48	=48	=48	=48	=48	=48	=48	=48	=48	=48	=48	=48	=48
!LO:PB:g=original	!	!	!	!	!	!	!	!LO:PB:g=original	!	!	!LO:PB:g=original	!	!
2G\	.	2G\	-a	.	2B\	-a	.	2g\	-a	.	2g\	-a	.
4Fn\	.	4Fn\	qui	.	4B\	qui	.	4d\	qui	.	4g\	qui	.
=49	=49	=49	=49	=49	=49	=49	=49	=49	=49	=49	=49	=49	=49
2E\	.	2E\	vi-	.	2c\	vi-	.	2c\	vi-	.	2g\	vi-	.
4D\	.	4D\	-tam	.	4B\	-tam	.	4fn\	-tam	.	4g\	-tam	.
=50	=50	=50	=50	=50	=50	=50	=50	=50	=50	=50	=50	=50	=50
!	!	!	!	!	!LO:PB:g=original	!	!	!	!	!	!	!	!
2C\	.	2C/	si-	.	2c\	si-	.	2e\	si-	.	2g\	si-	.
4BB\	.	4BB/	-ne	.	4d\	-ne	.	4d\	-ne	.	4g\	-ne	.
=51	=51	=51	=51	=51	=51	=51	=51	=51	=51	=51	=51	=51	=51
!	!	!	!	!	!	!	!	!	!	!	!	!	!LO:DY:a
4.AA/	.	4.AA/	ter-	.	4.c\	ter-	.	4.e\	ter-	.	4.cc\	ter-	<
8AA/	.	8AA/	-mi-	.	8c\	-mi-	.	8e\	-mi-	.	8cc\	-mi-	[
4D/	.	4D/	-no	.	4A\	-no	.	4f#X\	-no	.	4cc\	-no	f
=52	=52	=52	=52	=52	=52	=52	=52	=52	=52	=52	=52	=52	=52
!	!	!LO:PB:g=original	!	!	!	!	!	!	!	!	!	!	!
*	*	*	*	*	*^	*	*	*	*	*	*	*	*
!	!	!	!	!	!	!	!	!	!	!	!	!	!	!LO:DY:a
2E\	.	2E\	no-	.	2.ryy	2G/	no-	.	2g\	no-	.	2b\	no-	.
.	.	.	.	.	.	.	.	.	.	.	.	.	.	>
!	!	!	!	!LO:DY:a	!	!	!	!	!	!	!	!	!	!
4E\	>	4E\	-bis	>	.	[4G/	-bis	.	4g\	-bis	.	4b\	-bis	.
.	.	.	.	]	.	.	.	.	.	.	.	.	.	]
=53	=53	=53	=53	=53	=53	=53	=53	=53	=53	=53	=53	=53	=53	=53
!	!LO:DY:a	!	!	!	!	!	!	!	!	!	!	!	!	!
2.C/	]	2.C/	do-	]	[2.c/	4G]\	Do-	.	4g\	do-	.	2ee\	do-	.
.	.	.	.	.	.	4G#X\	.	.	4g#X\	.	.	.	.	.
.	.	.	.	.	.	4A\	.	.	4a\	.	.	[4ee\	.	.
=54	=54	=54	=54	=54	=54	=54	=54	=54	=54	=54	=54	=54	=54	=54
2C/	]	2C/	-net	.	2c]/	2A\	-net	.	2e\	-net	.	8eeL]\	.	.
.	.	.	.	.	.	.	.	.	.	.	.	8b\	.	.
.	.	.	.	.	.	.	.	.	.	.	.	8cc\	.	.
.	.	.	.	.	.	.	.	.	.	.	.	8a\	.	.
4C/	.	4C/	in	.	4c/	4c\	in	.	4e\	in	.	8cc\	.	.
.	.	.	.	.	.	.	.	.	.	.	.	[8eeJ\	.	.
*	*	*	*	*	*v	*v	*	*	*	*	*	*	*	*
=55	=55	=55	=55	=55	=55	=55	=55	=55	=55	=55	=55	=55	=55
[2.D\	.	[2.D\	pa-	.	2B\	pa-	.	[2.g\	pa-	.	8eeL]\	.	.
.	.	.	.	.	.	.	.	.	.	.	8dd\	.	.
.	.	.	.	.	.	.	.	.	.	.	(>8gg\	-net	.
.	.	.	.	.	.	.	.	.	.	.	8b)\	.	.
.	.	.	.	.	[4B\	.	.	.	.	.	(>8ee\	in	.
.	.	.	.	.	.	.	.	.	.	.	8ddJ)\	.	.
=56	=56	=56	=56	=56	=56	=56	=56	=56	=56	=56	=56	=56	=56
2.D]\	.	2.D]\	.	.	8BL]\	.	.	2g]\	.	.	(>2dd\	pa-	.
.	.	.	.	.	(>8G\	.	.	.	.	.	.	.	.
.	.	.	.	.	8c\	.	.	.	.	.	.	.	.
.	.	.	.	.	8B\	.	.	.	.	.	.	.	.
.	.	.	.	.	8e\	.	.	[4g\	.	.	4b)\	.	.
.	.	.	.	.	8dJ)\	.	.	.	.	.	.	.	.
=57	=57	=57	=57	=57	=57	=57	=57	=57	=57	=57	=57	=57	=57
!	!	!	!	!	!	!	!	!LO:PB:g=original	!	!	!LO:PB:g=original	!	!
2.D\	.	2.D\	-tri-	.	2d\	.	.	8gL]\	.	.	2a\	.	.
.	.	.	.	.	.	.	.	8f#\	.	.	.	.	.
.	.	.	.	.	.	.	.	8a\	.	.	.	.	.
.	.	.	.	.	.	.	.	(>8dJ\	.	.	.	.	.
.	.	.	.	.	(>8dL\	-tri-	.	8eL\	-tri-	.	4a\	-tri-	.
.	.	.	.	.	8cJ)\	.	.	8f#J)\	.	.	.	.	.
=58	=58	=58	=58	=58	=58	=58	=58	=58	=58	=58	=58	=58	=58
!	!	!	!	!	!LO:PB:g=original	!	!	!	!	!	!	!	!
2.G\	.	2G\	-a	.	4.B\	-a	.	2g\	-a	.	4.g\	-a	.
.	.	.	.	.	8BL\	a-	.	.	.	.	(>8gL\	a-	.
.	.	4r	.	.	8c\	.	.	4r	.	.	8a\	.	.
.	.	.	.	.	8dJ\	.	.	.	.	.	8bJ)\	.	.
=59	=59	=59	=59	=59	=59	=59	=59	=59	=59	=59	=59	=59	=59
!	!LO:HP:a	!	!	!LO:DY:a	!	!	!	!	!	!	!	!	!
0C/	<	0.C/	A-	<	0e\	.	.	0.g\	A-	.	0.cc\	.	<
.	[	.	.	[	.	.	.	.	.	.	.	.	[
!	!LO:DY:a	!	!	!	!	!	!	!	!	!	!	!	!
.	>	.	.	>	.	.	.	.	.	.	.	.	>
1E\	]	.	.	]	1ryy	.	.	.	.	.	.	.	]
=60	=60	=60	=60	=60	=60	=60	=60	=60	=60	=60	=60	=60	=60
!LO:N:vis=0	!	!	!	!	!LO:N:vis=0	!	!	!	!	!	!	!	!
0.G\	]	0.G\	-men	[	0.d\	-men	.	0.g\	-men	.	0.b\	-men	[
==	==	==	==	==	==	==	==	==	==	==	==	==	==
*-	*-	*-	*-	*-	*-	*-	*-	*-	*-	*-	*-	*-	*-
!!!system-decoration: [(s1,s2,s3,s4)][(s5,s6,s7)]{(s8,s9)}
!!!RDF**kern: > = above
!!!RDF**kern: < = below
!!!ENC: Leszek Kubiak
!!!END: 2020-03-06
!!!ENC: Berenika Jozajtis
!!!END: 2020-02-04
